X: 1
T: Light And Airy
M: 6/8
L: 1/8
R: jig
K: Fmaj
AB| c3 AcA| FAc fcA| c3 AcA| G2 A B2 d |
 c3 AcA| FAc fcA| BgB AfA| G2 A B2 d||
|fgf fcA| fgf a2 g| fgf fcA|G2 A B2 d |
faf gbg| faf ege|fed cBA| G2 A B2 d ||
| cAF F2 A| cAF Acf| cAF F2 A| G2 A B2 d|
 cAF FAc| fed cBA | BgB AfA| G2 A B2 d ||
|fgf fcA| fgf a2 g| fgf fcA| G2 A B2 d |
  faf gbg| faf ege| fed cBA| G2 A B2 d|]
